packages/swarm-icons/src/icons/line/Message.svg

<svg xmlns="http://www.w3.org/2000/svg" width="24" height="24" viewBox="0 0 24 24">
  <path fill="#757575" d="M9.66582821,19.0857806 C10.4102391,19.2670083 11.1927068,19.3636364 12,19.3636364 C16.9705627,19.3636364 21,15.7005116 21,11.1818182 C21,6.66312477 16.9705627,3 12,3 C7.02943725,3 3,6.66312477 3,11.1818182 C3,13.5514727 4.10812486,15.6858395 5.87898753,17.1800213 L5.45454545,21 L9.66582821,19.0857806 Z M5.8683484,21.9103665 C5.16199954,22.2314341 4.37497844,21.660718 4.46066172,20.8895685 L4.82816932,17.582 C3.03410708,15.8882823 2,13.613213 2,11.1818182 C2,6.08844977 6.49729475,2 12,2 C17.5027052,2 22,6.08844977 22,11.1818182 C22,16.2751866 17.5027052,20.3636364 12,20.3636364 C11.2440642,20.3636364 10.4985774,20.2865277 9.77365094,20.135229 L5.8683484,21.9103665 Z M9,13.5 C8.72385763,13.5 8.5,13.2761424 8.5,13 C8.5,12.7238576 8.72385763,12.5 9,12.5 L15,12.5 C15.2761424,12.5 15.5,12.7238576 15.5,13 C15.5,13.2761424 15.2761424,13.5 15,13.5 L9,13.5 Z M7,10 C6.72385763,10 6.5,9.77614237 6.5,9.5 C6.5,9.22385763 6.72385763,9 7,9 L17,9 C17.2761424,9 17.5,9.22385763 17.5,9.5 C17.5,9.77614237 17.2761424,10 17,10 L7,10 Z"/>
</svg>

<svg xmlns="http://www.w3.org/2000/svg" width="24" height="24"><path fill="#757575" d="M9.666 19.086a9.862 9.862 0 002.334.278c4.97 0 9-3.663 9-8.182S16.97 3 12 3s-9 3.663-9 8.182c0 2.37 1.108 4.504 2.879 5.998L5.455 21l4.21-1.914zM5.868 21.91a1 1 0 01-1.407-1.02l.367-3.308C3.034 15.888 2 13.613 2 11.182 2 6.088 6.497 2 12 2s10 4.088 10 9.182c0 5.093-4.497 9.182-10 9.182-.756 0-1.501-.077-2.226-.229L5.868 21.91zM9 13.5a.5.5 0 110-1h6a.5.5 0 110 1H9zM7 10a.5.5 0 010-1h10a.5.5 0 110 1H7z"/></svg>
